X: 3
T: Rodney's Glory
R: hornpipe
M: 4/4
L: 1/8
K: Gmaj
AB|:c2Bc ABcA|BGEF G2cd|e=fed cde^f|ged^c dfed|(3cdc Bc ABcA|BGEF G2ed|(3cdc BA GABG|A4 A2:|:Bd||eaab aged|efed c2A2|g2(3gfg age^c|dcAF G2E2|AGAB cBcd|efge a3b|aged cdef|ged^c dfed|(3cdc Bc ABcA|BGEF G2ed|(3cdc BA GABG|A2AG A2:|Bd||


Tune 3786	Setting 16737

